assets/equinixmetal/mono.svg

<svg viewBox="0 0 24 24" xmlns="http://www.w3.org/2000/svg"><path d="m22.399 7.789v7.005l-1.599.56v-8.123l-4.8-1.674v11.472l-1.601.557v-12.59l-2.399-.836-2.4.836v12.59l-1.599-.557v-11.472l-4.801 1.675v8.121l-1.599-.56v-7.003l-1.601.559v7.582l4.801 1.676v-9.24l1.6-.558v10.356l4.799 1.675v-13.707l.8-.28.8.28v13.708l4.801-1.676v-10.356l1.599.558v9.24l4.8-1.677v-7.581z"/></svg>

<svg xmlns="http://www.w3.org/2000/svg" viewBox="0 0 24 24"><path d="M22.399 7.789v7.005l-1.599.56V7.231L16 5.557v11.472l-1.601.557V4.996L12 4.16l-2.4.836v12.59l-1.599-.557V5.557L3.2 7.232v8.121l-1.599-.56V7.79L0 8.349v7.582l4.801 1.676v-9.24l1.6-.558v10.356L11.2 19.84V6.133l.8-.28.8.28v13.708l4.801-1.676V7.809l1.599.558v9.24L24 15.93V8.349z"/></svg>
